X: 39
M: C
L: 1/8
K: G
vkBGG<G AFAc | B(GkG2) (vkg2d)uc | vBGG<G AFA(uc | BG)AF G2 :|
ef |: vg2g2 afa(ud | [f2d2])fg ka2af | kg2gf efe(u^c |1 eka)vaf gede :|2 eaaf gedc |]
effect ida second half o' him laek whit da auld fiddlers
did fir a dancing it fairly  pits a queef itil him.


